assets/img/medium.svg

<svg xmlns="http://www.w3.org/2000/svg" width="39" height="39" viewBox="0 0 39 39">
  <g fill="none" fill-rule="evenodd">
    <rect width="38" height="39" x=".88" fill="#1EAB89" rx="2"/>
    <path fill="#20252E" d="M29,24.726 L28.278608,24.726 C28.010784,24.726 27.632,24.3294792 27.632,24.0756204 L27.632,14.8746 C27.632,14.6204292 28.010784,14.274 28.278608,14.274 L29,14.274 L29,12.09 L22.464,12.09 L22.464,14.274 L23.832,14.274 L23.832,23.946 L23.764968,23.946 L20.5704144,12.09 L18.0971464,12.09 L14.9438,23.946 L14.864,23.946 L14.864,14.274 L16.232,14.274 L16.232,12.09 L10.76,12.09 L10.76,14.274 L11.460685,14.274 C11.7492464,14.274 12.128,14.6204292 12.128,14.8746 L12.128,24.0756204 C12.128,24.3294792 11.7492464,24.726 11.460685,24.726 L10.76,24.726 L10.76,26.91 L17.6024928,26.91 L19.8490072,18.33 L19.9108104,18.33 L22.1781032,26.91 L29,26.91 L29,24.726" transform="matrix(1 0 0 -1 0 39)"/>
  </g>
</svg>

<?xml version="1.0" encoding="UTF-8" standalone="no"?>
<svg width="39" xmlns="http://www.w3.org/2000/svg" viewBox="0 0 39 39" height="39">
 <g fill-rule="evenodd">
  <rect width="38" fill="#1EAB89" rx="2" x=".88" height="39"/>
  <path transform="matrix(1 0 0 -1 0 39)" d="m29 24.726h-0.721c-0.268 0-0.647-0.397-0.647-0.65v-9.201c0-0.255 0.379-0.601 0.647-0.601h0.721v-2.184h-6.536v2.184h1.368v9.672h-0.067l-3.195-11.856h-2.473l-3.153 11.856h-0.08v-9.672h1.368v-2.184h-5.472v2.184h0.701c0.288 0 0.667 0.346 0.667 0.601v9.201c0 0.253-0.379 0.65-0.667 0.65h-0.701v2.184h6.842l2.247-8.58h0.062l2.267 8.58h6.822v-2.184" fill="#20252E"/>
 </g>
</svg>
